images/redo.svg

<?xml version="1.0" encoding="UTF-8" standalone="no"?>
<svg width="13px" height="16px" viewBox="0 0 13 16" version="1.1" xmlns="http://www.w3.org/2000/svg" xmlns:xlink="http://www.w3.org/1999/xlink">
    <!-- Generator: Sketch 40.3 (33839) - http://www.bohemiancoding.com/sketch -->
    <title>redo</title>
    <desc>Created with Sketch.</desc>
    <defs></defs>
    <g id="Page-1" stroke="none" stroke-width="1" fill="none" fill-rule="evenodd">
        <g id="redo" fill="#000000">
            <g id="Capa_1">
                <path d="M6.50352152,13.977251 C4.02687342,13.977251 2.01216962,11.9621399 2.01216962,9.48457613 C2.01216962,7.00714403 4.02687342,4.99186831 6.50352152,4.99186831 L6.50352152,7.98702881 L11.493843,3.99354733 L6.50352152,0 L6.50352152,2.99516049 C2.92648101,2.99516049 0.0161265823,5.90650206 0.0161265823,9.48460905 C0.0161265823,13.0629136 2.92648101,15.9740905 6.50352152,15.9740905 C10.080562,15.9740905 12.9908177,13.0629136 12.9908177,9.48460905 L10.9949063,9.48460905 C10.9949392,11.9621399 8.98016962,13.977251 6.50352152,13.977251 L6.50352152,13.977251 Z" id="Shape"></path>
            </g>
        </g>
    </g>
</svg>

<svg width="13" height="16" xmlns="http://www.w3.org/2000/svg"><path d="M6.504 13.977a4.497 4.497 0 0 1-4.492-4.492 4.497 4.497 0 0 1 4.492-4.493v2.995l4.99-3.993L6.504 0v2.995a6.496 6.496 0 0 0-6.488 6.49c0 3.578 2.91 6.49 6.488 6.49a6.496 6.496 0 0 0 6.487-6.49h-1.996a4.497 4.497 0 0 1-4.491 4.492z" fill="#000" fill-rule="evenodd"/></svg>
